X: 39309
T: Taladh Chriosd
R: waltz
M: 3/4
K: Cmajor
K:Cmix
C4D2|G6|F4G2|C4C2|E4C2|D4G2|F4G2|B,6|
C4D2|G6|F4G2|C4C2|C4G,2|B,4C2|D2C4|C6||
C4D2|E4F2|G4E2|C6|E4C2|D4G2|F4D2|B,6|
C4D2|E4F2|G4E2|C4C2|C4G,2|B,4C2|D2C4-|C6||

